!!!COM: Palestrina, Giovanni Perluigi da
!!!OPR: Missa Sine nomine (1599)
!!!OMD: Credo
!!!OTL: First Section
**kern	**kern	**kern	**kern	**kern
*Ibass	*Itenor	*Icalto	*Icalto	*Icant
!Bassus	!Tenor	!Altus 2	!Altus 1	!Cantus
*clefF4	*clefGv2	*clefG2	*clefG2	*clefG2
*k[]	*k[]	*k[]	*k[]	*k[]
*A:aeo	*A:aeo	*A:aeo	*A:aeo	*A:aeo
*M4/2	*M4/2	*M4/2	*M4/2	*M4/2
=1	=1	=1	=1	=1
0r	0r	0a	0r	0r
=2	=2	=2	=2	=2
0r	0r	1g	1r	0r
.	.	1a	[1cc	.
=3	=3	=3	=3	=3
0r	0r	2f	1cc]	0r
.	.	2e	.	.
.	.	1d	1b	.
=4	=4	=4	=4	=4
0r	0r	0c	1cc	0ee
.	.	.	2a	.
.	.	.	2g	.
=5	=5	=5	=5	=5
0r	0r	2r	1f	1dd
.	.	2d	.	.
.	.	4c	4e	1ee
.	.	4B	4d	.
.	.	4A	4c	.
.	.	4B	4d	.
=6	=6	=6	=6	=6
0r	0r	4c	4e	2cc
.	.	4d	4f	.
.	.	2e	1g	2b
.	.	2c	.	1a
.	.	2d	2f	.
=7	=7	=7	=7	=7
0c	0r	2.e	2.g	[0g
.	.	4d	4f	.
.	.	2c	2e	.
.	.	4B	4d	.
.	.	4A	4c	.
=8	=8	=8	=8	=8
1B	1r	1G	2d	0g]
.	.	.	2g	.
1c	[1e	1r	4g	.
.	.	.	4f	.
.	.	.	4e	.
.	.	.	4d	.
=9	=9	=9	=9	=9
2A	1e]	2r	2c	1r
2G	.	2e	2B	.
1F	1d	2a	2A	2r
.	.	2a	2A	2a
=10	=10	=10	=10	=10
1E	1e	2a	2r	2cc
.	.	2g	2e	2b
1r	2c	4e	2g	2ee
.	.	4f	.	.
.	2B	4g	2g	[2dd
.	.	4d	.	.
=11	=11	=11	=11	=11
0r	1A	4f	2a	4dd]
.	.	4e	.	4cc
.	.	4d	2f	2.cc
.	.	4c	.	.
.	1G	1d	1g	.
.	.	.	.	8b
.	.	.	.	8a
.	.	.	.	2b
=12	=12	=12	=12	=12
2r	0r	1c	2e	2cc
2A	.	.	2a	2cc
2B	.	2r	2g	2dd
2c	.	2cc	2g	2ee
=13	=13	=13	=13	=13
1d	1r	2a	1f	1ff
.	.	2b	.	.
4c	2r	2cc	2g	4ee
4B	.	.	.	4dd
4A	2c	2cc	[2a	4cc
4G	.	.	.	4b
=14	=14	=14	=14	=14
2F	2d	2r	4a]	2a
.	.	.	4f	.
2E	2e	2g	2g	2cc
1D	1f	2a	2f	1dd
.	.	2b	2d	.
=15	=15	=15	=15	=15
1C	4e	1cc	2r	2g
.	4d	.	.	.
.	4c	.	2e	2g
.	4B	.	.	.
1r	2A	2c	2f	2a
.	2G	[2e	2g	2b
=16	=16	=16	=16	=16
0r	1F	2e]	1a	2cc
.	.	2d	.	4a
.	.	.	.	4b
.	1E	2e	4g	4cc
.	.	.	4f	4dd
.	.	2g	4e	[2ee
.	.	.	4d	.
=17	=17	=17	=17	=17
0r	0r	4g	2c	2ee]
.	.	4f	.	.
.	.	4e	2B	1dd
.	.	4d	.	.
.	.	1e	1A	.
.	.	.	.	2cc#
=18	=18	=18	=18	=18
2r	0r	1d	2d	2dd
1G	.	.	2g	1b
.	.	1r	2g	.
2c	.	.	[2g	2ee
=19	=19	=19	=19	=19
2B	1r	1r	4g]	2dd
.	.	.	8f#	.
.	.	.	8e	.
2A	.	.	2f#	2cc
1G	2r	2r	2g	1b
.	[2B	[2g	2d	.
=20	=20	=20	=20	=20
2.E	2B]	2g]	4e	2.g
.	.	.	4f	.
.	2e	2cc	1g	.
4F	.	.	.	4a
2G	2d	2b	.	2b
2A	2c	2a	2e	4cc
.	.	.	.	4dd
=21	=21	=21	=21	=21
1E	1B	2.g	2.e	4ee
.	.	.	.	4ff
.	.	.	.	2.gg
.	.	4a	4f	.
1r	2.G	2b	[1g	.
.	.	.	.	4ff
.	.	[2g	.	2ee
.	4A	.	.	.
=22	=22	=22	=22	=22
1r	2B	4g]	1g]	2dd
.	.	4f	.	.
.	2c	2e	.	1cc
2r	1G	1d	2r	.
2G	.	.	2g	2b
=23	=23	=23	=23	=23
2A	0r	1c	2f	1cc
1c	.	.	1e	.
.	.	1g	.	1r
2B	.	.	2d	.
=24	=24	=24	=24	=24
2A	2r	2f	2c	1r
2G	2B	1e	2B	.
1A	2c	.	1A	2r
.	[2e	2c	.	[2cc
=25	=25	=25	=25	=25
1G	2e]	2.g	0r	2cc]
.	2d	.	.	2b
.	.	4f	.	.
1r	2c	2e	.	2a
.	2B	2d	.	[2b
=26	=26	=26	=26	=26
0r	1c	1e	1r	2b]
.	.	.	.	1a
.	1B	2.d	2r	.
.	.	.	[2d	2g#
.	.	4e	.	.
=27	=27	=27	=27	=27
2r	0r	4f	2d]	2a
.	.	4g	.	.
1A	.	1a	2e	1cc
.	.	.	2f	.
2B	.	2g	2d	2dd
=28	=28	=28	=28	=28
2c	1r	2e	2g	2ee
2A	.	2f	2a	2cc
2B	2r	2f	1g	2dd
2c	[2c	2e	.	2ee
=29	=29	=29	=29	=29
1F	2c]	1f	2r	1a
.	2d	.	2f	.
1r	2e	1r	2g	2cc
.	2c	.	[2a	2cc
=30	=30	=30	=30	=30
1r	2d	1r	2a]	1b
.	2e	.	2g	.
2.F	1A	2r	1f	2a
.	.	[2a	.	4a
4G	.	.	.	4b
=31	=31	=31	=31	=31
4A	0r	2a]	2.e	4cc
4B	.	.	.	4dd
1c	.	2g	.	1ee
.	.	.	4f	.
.	.	4e	1g	.
.	.	4f	.	.
2B	.	4g	.	2dd
.	.	4f	.	.
=32	=32	=32	=32	=32
2.c	2.A	4e	0r	2.ee
.	.	4d	.	.
.	.	1c	.	.
4B	4B	.	.	4dd
2A	4c	.	.	2cc
.	4d	.	.	.
2E	[2e	2B	.	2g
=33	=33	=33	=33	=33
1F	2e]	2A	1r	2.a
.	2d	2a	.	.
.	.	.	.	4b
1C	2.e	2g	2r	4cc
.	.	.	.	4dd
.	.	[2cc	4c	[2ee
.	4d	.	4d	.
=34	=34	=34	=34	=34
0r	2c	2cc]	4e	2ee]
.	.	.	4f	.
.	2G	2.b	2g	2dd
.	1A	.	1e	1cc
.	.	4a	.	.
.	.	[2a	.	.
=35	=35	=35	=35	=35
1r	1E	2a]	1e	1b
.	.	2g#	.	.
2r	1r	1a	1f	2a
[2A	.	.	.	[2cc
=36	=36	=36	=36	=36
4A]	0r	2r	1e	4cc]
4A	.	.	.	4cc
2A	.	2.a	.	2cc
1d	.	.	1r	1ff
.	.	4a	.	.
.	.	2a	.	.
=37	=37	=37	=37	=37
1c	2r	1cc	2r	1ee
.	2.c	.	2.e	.
[1A	.	1cc	.	2r
.	4c	.	4e	.
.	2c	.	2e	[2cc
=38	=38	=38	=38	=38
2A]	1f	1r	1a	2cc]
2B	.	.	.	2dd
2.c	1e	2r	2g	[1ee
.	.	2g	[2e	.
4B	.	.	.	.
=39	=39	=39	=39	=39
1.A	1.c	2a	2e]	2ee]
.	.	1cc	2e	2ee
.	.	.	2f	2a
2F	2d	2a	2f	4a
.	.	.	.	4b
=40	=40	=40	=40	=40
1c	2.e	2.g	2g	4cc
.	.	.	.	4dd
.	.	.	2c	4ee
.	4d	4f	.	4ff
1r	[1c	[1e	4c	4gg
.	.	.	4d	4ff
.	.	.	4e	4ee
.	.	.	4f	4dd
=41	=41	=41	=41	=41
0r	2c]	1e]	2g	2ee
.	2A	.	1a	2cc
.	1e	1r	.	2b
.	.	.	2g#	2b
=42	=42	=42	=42	=42
0r	0r	2r	2a	2a
.	.	1a	1cc	1ee
.	.	2g	2b	2ee
=43	=43	=43	=43	=43
0r	0r	2a	2cc	2ff
.	.	2g	2b	2ee
.	.	1f	1a	4dd
.	.	.	.	4cc
.	.	.	.	2dd
=44	=44	=44	=44	=44
1.c	0r	2e	2g	1ee
.	.	1g	1e	.
.	.	.	.	1r
2B	.	2g	2d	.
=45	=45	=45	=45	=45
2c	1r	2a	2e	0r
2B	.	2b	2d	.
1A	[1e	1cc	4c	.
.	.	.	4d	.
.	.	.	4e	.
.	.	.	4f	.
=46	=46	=46	=46	=46
1G	2e]	2.b	1g	0r
.	2d	.	.	.
.	.	4a	.	.
1r	2e	2g	2c	.
.	2d	2f	2d	.
=47	=47	=47	=47	=47
2r	1c	0e	1A	2r
1A	.	.	.	2a
.	1B	.	2r	1b
2G	.	.	[2e	.
=48	=48	=48	=48	=48
2A	1r	0r	2e]	2cc
2B	.	.	2d	2b
1c	2r	.	1e	1g
.	[2c	.	.	.
=49	=49	=49	=49	=49
2A	2c]	0r	2f#	1r
2G	2B	.	2g	.
1F	2c	.	2.a	2r
.	2d	.	.	[2a
.	.	.	4b	.
=50	=50	=50	=50	=50
0r	1e	2r	2cc	2a]
.	.	1e	2b	2g
.	2c	.	4a	2a
.	.	.	8g	.
.	.	.	8f#	.
.	2B	2d	2g	2b
=51	=51	=51	=51	=51
0r	1A	2e	1a	1cc
.	.	2f#	.	.
.	1r	1g	4e	2.b
.	.	.	4f#	.
.	.	.	4g	.
.	.	.	4e	8a
.	.	.	.	8b
=52	=52	=52	=52	=52
0r	0r	2f	2a	4cc
.	.	.	.	4b
.	.	2e	1g	4a
.	.	.	.	4g
.	.	1d	.	2a
.	.	.	2f#	2a
=53	=53	=53	=53	=53
2r	0r	1G	2g	2.b
2G	.	.	2b	.
.	.	.	.	4cc
2G	.	2r	2b	1dd
2G	.	2g	2b	.
=54	=54	=54	=54	=54
1A	1r	2e	1cc	1r
.	.	2f#	.	.
1G	2r	1g	2.b	1dd
.	2B	.	.	.
.	.	.	4a	.
=55	=55	=55	=55	=55
0r	2B	1G	0g	2dd
.	2B	.	.	2dd
.	1c	1r	.	1ee
=56	=56	=56	=56	=56
1G	1B	1r	2r	1dd
.	.	.	2b	.
2A	1r	2r	2cc	1r
2B	.	2d	2b	.
=57	=57	=57	=57	=57
2c	1r	2e	2g	1r
2A	.	2f#	2a	.
1G	1B	2.g	1d	1dd
.	.	4f	.	.
=58	=58	=58	=58	=58
0r	2c	2e	1r	2ee
.	2d	2d	.	2ff
.	2e	1c	2r	2gg
.	2c	.	[2g	2ee
=59	=59	=59	=59	=59
2r	1B	1G	2g]	0dd
1G	.	.	2g	.
.	1r	2g	1b	.
2G	.	2g	.	.
=60	=60	=60	=60	=60
1A	1r	2e	1cc	1r
.	.	2f#	.	.
1G	2r	1g	1b	[1dd
.	2B	.	.	.
=61	=61	=61	=61	=61
0r	2B	1G	2r	2dd]
.	2B	.	1g	2dd
.	1c	1r	.	1ee
.	.	.	[2a	.
=62	=62	=62	=62	=62
2r	1B	0r	2a]	2dd
2E	.	.	2g	2ee
1F	1r	.	4a	2cc
.	.	.	4g	.
.	.	.	2f	[2dd
=63	=63	=63	=63	=63
1A	1r	2r	2e	4dd]
.	.	.	.	4cc
.	.	2c	2e	2.cc
1G	2r	1d	1g	.
.	.	.	.	8b
.	.	.	.	8a
.	2G	.	.	2b
=64	=64	=64	=64	=64
2.F	1A	1f	2c	2cc
.	.	.	2.cc	2.a
4G	.	.	.	.
1A	1c	[1e	.	.
.	.	.	4b	4b
.	.	.	[2a	4cc
.	.	.	.	4dd
=65	=65	=65	=65	=65
1E	1B	1e]	2a]	1ee
.	.	.	2g#	.
1r	2.A	1e	2.a	1cc#
.	4B	.	8g	.
.	.	.	8f	.
=66	=66	=66	=66	=66
0r	1c	2r	2.e	2r
.	.	1cc	.	1ee
.	.	.	4f#	.
.	1G	.	1g	.
.	.	2b	.	2dd
=67	=67	=67	=67	=67
0r	0r	2a	1r	2cc
.	.	2g	.	2b
.	.	1f	2r	4a
.	.	.	.	4b
.	.	.	[2a	4cc
.	.	.	.	4a
=68	=68	=68	=68	=68
0r	0r	1e	2a]	1b
.	.	.	2g	.
.	.	1A	2f	2a
.	.	.	2e	2cc
=69	=69	=69	=69	=69
0r	0r	1f	1d	2dd
.	.	.	.	1ff
.	.	1g	2c	.
.	.	.	2c	2ee
=70	=70	=70	=70	=70
0r	0r	2b-	2d	2dd
.	.	4a	1f	2cc
.	.	4g	.	.
.	.	2a	.	2dd
.	.	2g	2e	2ee
=71	=71	=71	=71	=71
2r	0r	4f	4d	2a
.	.	4e	4c#	.
1d	.	2a	2d	1ff
.	.	2a	1A	.
2c#	.	2a	.	2ee
=72	=72	=72	=72	=72
1d	1r	2a	0r	1ff
.	.	2d	.	.
2B-	2r	2f	.	2dd
2A	[2f	2f	.	2cc
=73	=73	=73	=73	=73
2G	2f]	2g	0r	2b-
2G	2e	2g	.	2b-
1F	1f	2c	.	1a
.	.	[2f	.	.
=74	=74	=74	=74	=74
0r	2d	2f]	2r	2.a
.	2c	2e	1a	.
.	.	.	.	4cc
.	2B-	2.d	.	2dd
.	2B-	.	2g	2dd
.	.	4e	.	.
=75	=75	=75	=75	=75
0r	1A	2f	1a	2cc
.	.	2e	.	4a
.	.	.	.	4b
.	1r	2a	2f	4cc
.	.	.	.	4dd
.	.	4g	2e	4ee
.	.	4a	.	4cc
=76	=76	=76	=76	=76
0r	0r	4b-	2d	4dd
.	.	4a	.	4ee
.	.	4g	2d	1ff
.	.	4f	.	.
.	.	1g	1c	.
.	.	.	.	2ee
=77	=77	=77	=77	=77
2r	0r	1f	2r	2ff
2F	.	.	2f	2a
2G	.	2r	2e	2b
2A	.	2a	2e	2cc#
=78	=78	=78	=78	=78
1B-	1r	2f	1d	1dd
.	.	2g	.	.
2.A	2r	4a	[1e	2.cc
.	.	4b	.	.
.	2A	2cc	.	.
8G	.	.	.	4dd
8F	.	.	.	.
=79	=79	=79	=79	=79
2G	2B	2b	2e]	2ee
2A	2c#	2a	2e	2ee
1D	1d	1a	4f	4dd
.	.	.	4g	4ee
.	.	.	4a	4ff
.	.	.	4b	4dd
=80	=80	=80	=80	=80
0r	2.c	2r	2cc	1ee
.	.	2e	2g	.
.	8B	.	.	.
.	8A	.	.	.
.	2B	2d	2g	1r
.	2c	2e	2g	.
=81	=81	=81	=81	=81
2r	1F	1f	1a	2r
2F	.	.	.	2a
2G	1r	2d	2g	2b
2A	.	2c	2e	2cc
=82	=82	=82	=82	=82
1B-	1r	2f	1d	1dd
.	.	2g	.	.
2.A	2r	1a	2e	1cc
.	2A	.	2cc	.
8G	.	.	.	.
8F	.	.	.	.
=83	=83	=83	=83	=83
2G	2B	2r	2b	1ee
2A	2c#	2e	2a	.
1D	1d	1f	[1a	1dd
=84	=84	=84	=84	=84
1A	2.c	2e	2a]	2ee
.	.	2c	2e	2ee
.	8B	.	.	.
.	8A	.	.	.
1r	2B	2d	1g	2dd
.	2c	2e	.	2cc
=85	=85	=85	=85	=85
0r	1F	1f	1a	1cc
.	1c	2e	1g	1cc
.	.	2c	.	.
=86	=86	=86	=86	=86
0c	0r	4c	1g	0ee
.	.	4d	.	.
.	.	4e	.	.
.	.	4f	.	.
.	.	2g	2e	.
.	.	[2a	2c	.
=87	=87	=87	=87	=87
1B	1r	2a]	1d	1dd
.	.	2g#	.	.
2A	[1e	2a	2e	2cc
2A	.	2e	2A	2cc
=88	=88	=88	=88	=88
1G	1e]	1g	2r	2.b
.	.	.	2e	.
.	.	.	.	4cc
1F	1d	1a	2f	4dd
.	.	.	.	4cc
.	.	.	2f	4a
.	.	.	.	4b
=89	=89	=89	=89	=89
1A	2c	2a	2e	4cc
.	.	.	.	4b
.	2c	2e	2.a	4cc
.	.	.	.	4dd
1E	1B	1e	.	1ee
.	.	.	8g#	.
.	.	.	8f#	.
.	.	.	2g#	.
=90	=90	=90	=90	=90
0A	0A	0e	0a	0cc#
=91	=91	=91	=91	=91
0A	0r	0c#	0e	0a
=92	=92	=92	=92	=92
1G	1r	1d	1g	1b
1F	[1c	1f	1a	2cc
.	.	.	.	[2cc
=93	=93	=93	=93	=93
1A	1c]	0e	1a	2cc]
.	.	.	.	2a
1E	1B	.	1g#	1ee
=94	=94	=94	=94	=94
1F	1A	2c	1a	2r
.	.	2.f	.	2cc
1r	1c	.	[1g	2cc
.	.	4e	.	.
.	.	[2e	.	2cc
=95	=95	=95	=95	=95
1r	1G	4e]	2g]	2b
.	.	4d	.	.
.	.	1d	2f	2b
2r	1A	.	2e	2a
2A	.	2c#	[2a	2ee
=96	=96	=96	=96	=96
1.d	0r	2d	2a]	1.ff
.	.	2a	2f	.
.	.	2f	2d	.
2c	.	2g	[2e	2ee
=97	=97	=97	=97	=97
1A	2r	1a	2e]	1cc
.	2c	.	2.f	.
1B-	[1f	4d	.	1dd
.	.	4e	4e	.
.	.	4f	4d	.
.	.	4g	4e	.
=98	=98	=98	=98	=98
0A	2f]	4a	4f	2.cc
.	.	4b	4g	.
.	2e	1cc	4a	.
.	.	.	4b	4dd
.	1c	.	1cc	4ee
.	.	.	.	4dd
.	.	[2a	.	4cc
.	.	.	.	4b
=99	=99	=99	=99	=99
0r	1d	2a]	1f	2a
.	.	4g	.	2b
.	.	4f	.	.
.	[1c	1e	1g	1cc
=100	=100	=100	=100	=100
2r	1c]	2r	2r	2r
1F	.	1a	1f	1cc
.	1r	.	.	.
2F	.	2a	2f	2cc
=101	=101	=101	=101	=101
1G	1r	1g	1d	1b
1A	2r	1e	1c	1a
.	[2A	.	.	.
=102	=102	=102	=102	=102
1F	2A]	1a	1f	1cc
.	2A	.	.	.
1G	1B	1g	2d	1b
.	.	.	[2e	.
=103	=103	=103	=103	=103
0A	1c	1e	2e]	2a
.	.	.	1a	1cc
.	1A	2f	.	.
.	.	2e	2a	2cc
=104	=104	=104	=104	=104
0r	1B	2d	1.g	1dd
.	.	2d	.	.
.	[1c	4c	.	1ee
.	.	4d	.	.
.	.	4e	2g	.
.	.	4f	.	.
=105	=105	=105	=105	=105
0r	1c]	4g	2e	1cc
.	.	4c	.	.
.	.	1cc	2a	.
.	1r	.	1g	1dd
.	.	2b	.	.
=106	=106	=106	=106	=106
1r	0r	1cc	2r	1ee
.	.	.	2.c	.
[1c	.	[1cc	.	[1ee
.	.	.	4d	.
.	.	.	4e	.
.	.	.	4f	.
=107	=107	=107	=107	=107
1c]	0r	1cc]	2g	1ee]
.	.	.	1a	.
1d	.	2.a	.	1ff
.	.	.	2f	.
.	.	4b	.	.
=108	=108	=108	=108	=108
1c	0e	2cc	2g	1ee
.	.	2g	2c	.
2A	.	[1a	1c	2cc
2A	.	.	.	2cc
=109	=109	=109	=109	=109
4F	1f	1a]	2r	4a
4G	.	.	.	4b
4A	.	.	1c	4cc
4B	.	.	.	4dd
1c	1e	2g	.	1ee
.	.	[2e	2g	.
=110	=110	=110	=110	=110
0A	2c	4e]	2a	[0ee
.	.	4d	.	.
.	2c	4c	2.cc	.
.	.	4B	.	.
.	4A	2.c	.	.
.	4B	.	4b	.
.	4c	.	[2a	.
.	4d	4A	.	.
=111	=111	=111	=111	=111
0E	[0e	0B	2a]	1ee]
.	.	.	4g#	.
.	.	.	4f#	.
.	.	.	2g#	1b
.	.	.	2g#	.
=112	=112	=112	=112	=112
0A	0e]	0A	0a	0cc#
*-	*-	*-	*-	*-
!!!CDT: 1525/^1526/-1594/2/2
!!!OCY: Italia
!!!AGN: Mass (Canonic)
!!!AST: renaissance, vocal
!!!ASW: Antiphon
!!!PWK: Masses, Book 9
!!!RNB: Cadence finals: D
!!!YOR: Le Opere Complete, v. 25, p. 93
!!!YOO: Rome, Italy: Fratelli Scalera
!!!END: 1992//
!!!EED: John Miller
!!!YEC: Copyright 2000, John Miller
!!!YEN: United States of America
!!!YEM: Rights to all derivative electronic formats reserved.
!!!YEM: Refer to licensing agreement for further details.
!!!YEM: This file must be accompanied by the licensing agreement.
!!!YEM: A copy of the licensing agreement may be found at http://www.music-cog.ohio-state.edu/HumdrumDatabases/Palestrina/license.txt
!!!EMD: converted to Humdrum by Bret Aarden
